X:1
T:Goldberg Variations: Variation XVII
T:BWV 988
T:J. S. Bach
%%score { 1 | 2 }
L:1/8
M:3/4
K:G
V:1 treble nm="Harp"
V:2 bass 
V:1
 B/d/f/a/ g>c B/A/G/B/ | A/^c/e/g/ f>B A/G/F/A/ | G/B/d/f/ e>A G/F/E/G/ | %3
 F/E/F/E/ F/A/d/^c/ d/f/a/=c/ | B/g/A/f/ G/e/=F/d/ E/c/D/B/ | c/E/B/D/ A/C/G/B,/ F/A,/E/G,/ | %6
[K:bass] A,/F/G,/E/ F,/D/E,/C/ D,/B,/C,/A,/ | B,,/A,,/B,,/A,,/ B,,/D,/G,/F,/ G, z | %8
[K:treble] d/b/c/a/ B/g/A/f/ G/e/F/d/ | E/d/^c/B/ c/e/a a/4g/4a/ z | B/g/A/f/ G/e/F/d/ E/^c/D/B/ | %11
 ^C/B/A/^G/ A/^c/e e/4d/4e3/2- | e/d/e/^c/ d/B/=c/A/ B/G/A/F/ | %13
 G/e/F/d/ E/^c/d/4c/4B/ c/4B/4A/B/g/ | g3/2f/4e/4 f/d/B/G/ A/F/G/e/ | F/E/F/E/ F/A/d/^c/ d z | %16
 B/d/f/a/ g>c B/A/G/B/ | A/^c/e/g/ f>B A/G/F/A/ | G/B/d/f/ e>A G/F/E/G/ | %19
 F/E/F/E/ F/A/d/^c/ d/f/a/=c/ | B/g/A/f/ G/e/=F/d/ E/c/D/B/ | c/E/B/D/ A/C/G/B,/ F/A,/E/G,/ | %22
 A,/F/G,/E/ F,/D/E,/C/ D,/B,/C,/A,/ | B,,/A,,/B,,/A,,/ B,,/D,/G,/F,/ G, z | %24
 d/b/c/a/ B/g/A/f/ G/e/F/d/ | E/d/^c/B/ c/e/a a/4g/4a/ z | B/g/A/f/ G/e/F/d/ E/^c/D/B/ | %27
 ^C/B/A/^G/ A/^c/e e/4d/4e3/2- | e/d/e/^c/ d/B/=c/A/ B/G/A/F/ | %29
 G/e/F/d/ E/^c/d/4c/4B/ c/4B/4A/B/g/ | g3/2f/4e/4 f/d/B/G/ A/F/G/e/ | F/E/F/E/ F/A/d/^c/ d z | %32
 a/f/g/e/ f/d/e/^c/ d/B/=c/A/ | B/G/A/F/ G/E/F/^D/ E/C/=D/B,/ | %34
[K:bass] C/A,/B,/^G,/ A,/F,/=G,/E,/ =F,/^D,/E,/^C,/ | ^D,/^C,/D,/C,/ D,2- D,/F,/B,/A,/ | %36
[K:treble] G,/B,/A,/C/ B,/^D/^C/E/ D/F/E/G/ | F/A/G/B/ A/c/B/d/ c/e/^d/f/ | %38
 e/g/f/a/ g/b/a/c'/ b/g/a/f/ | g/e/f/^d/ e/c/B/A/ G/F/E- | E/e/B/d/ c/B/A/c/ B/d/c/e/ | %41
 d/B/A/c/ B/A/^G/B/ A/c/B/d/ | c/A/G/B/ A/f/g/e/ f/d/e/c'/ | c'-c'/4b/4a/4g/4 f/g/a/f/{e} d2- | %44
 d/B/c/A/ B/g/A/=f/ G/e/=F/d/ | E z/4 G/4A/4B/4 c/A/B/G/ A/F/G/E/ | %46
 F/e/d- d/4e/4f/4g/4f/4e/4d/4c/4 B/g/A/f/ | G/F/G/F/ G/B/d/f/ g z | a/f/g/e/ f/d/e/^c/ d/B/=c/A/ | %49
 B/G/A/F/ G/E/F/^D/ E/C/=D/B,/ | C/A,/B,/^G,/ A,/F,/=G,/E,/ =F,/^D,/E,/^C,/ | %51
 ^D,/^C,/D,/C,/ D,2- D,/F,/B,/A,/ | G,/B,/A,/C/ B,/^D/^C/E/ D/F/E/G/ | %53
 F/A/G/B/ A/c/B/d/ c/e/^d/f/ | e/g/f/a/ g/b/a/c'/ b/g/a/f/ | g/e/f/^d/ e/c/B/A/ G/F/E- | %56
 E/e/B/d/ c/B/A/c/ B/d/c/e/ | d/B/A/c/ B/A/^G/B/ A/c/B/d/ | c/A/G/B/ A/f/g/e/ f/d/e/c'/ | %59
 c'-c'/4b/4a/4g/4 f/g/a/f/{e} d2- | d/B/c/A/ B/g/A/=f/ G/e/=F/d/ | %61
 E z/4 G/4A/4B/4 c/A/B/G/ A/F/G/E/ | F/e/d- d/4e/4f/4g/4f/4e/4d/4c/4 B/g/A/f/ | %63
 G/F/G/F/ G/B/d/f/ !fermata!g z |] %64
V:2
 G,,/B,,/A,,/C,/ B,,/D,/C,/E,/ D,/F,/E,/G,/ | F,/A,/G,/B,/ A,/[K:treble]^C/B,/D/ C/E/D/F/ | %2
 E/G/F/A/ G/B/A/^c/ B/d/c/e/ | d/^c/d/c/ d4- | d/B/c/A/ B/G/A/=F/ G/E/F/D/ | %5
[K:bass] E/C/D/B,/ C/A,/B,/G,/ A,/^F,/G,/E,/ | F,/D,/E,/C,/ D,/B,,/C,/A,,/ B,,/G,,/A,,/F,,/ | %7
 G,,/F,,/G,,/F,,/ G,,2- G,,/D,/G,/F,/ |[K:treble] G,/B,/D/F/ G>A B/^c/d/B/ | %9
 ^c/B/A/G/ F/E/^D/^C/[K:bass] B,/A,/G,/F,/ | E,/G,/B,/^D/[K:treble] E>F G/A/B/G/ | %11
 A/D/^C/B,/ C/E/A/B/ ^c/e/g/B/ | A/f/G/e/ F/d/E/c/ D/B/C/A/ | %13
[K:bass] B,/G/A,/F/ G,/E/F,/D/ E,/^C/D,/B,/ | ^C,/A,/B,,/G,/ A,,/F,/G,,/E,/ F,,/D,/E,,/C,/ | %15
 D,/^C,/D,/C,/ D,/A,,/F,,/A,,/ D,, z | G,,/B,,/A,,/C,/ B,,/D,/C,/E,/ D,/F,/E,/G,/ | %17
 F,/A,/G,/B,/ A,/^C/B,/D/ C/E/D/F/ | E/G/F/A/ G/B/A/^c/ B/d/c/e/ | d/^c/d/c/ d4- | %20
 d/B/c/A/ B/G/A/=F/ G/E/F/D/ | E/C/D/B,/ C/A,/B,/G,/ A,/^F,/G,/E,/ | %22
 F,/D,/E,/C,/ D,/B,,/C,/A,,/ B,,/G,,/A,,/F,,/ | G,,/F,,/G,,/F,,/ G,,2- G,,/D,/G,/F,/ | %24
 G,/B,/D/F/ G>A B/^c/d/B/ | ^c/B/A/G/ F/E/^D/^C/ B,/A,/G,/F,/ | E,/G,/B,/^D/ E>F G/A/B/G/ | %27
 A/D/^C/B,/ C/E/A/B/ ^c/e/g/B/ | A/f/G/e/ F/d/E/c/ D/B/C/A/ | B,/G/A,/F/ G,/E/F,/D/ E,/^C/D,/B,/ | %30
 ^C,/A,/B,,/G,/ A,,/F,/G,,/E,/ F,,/D,/E,,/C,/ | D,/^C,/D,/C,/ D,/A,,/F,,/A,,/ D,, z | %32
 D,,/F,,/A,,/^C,/ D,>E, F,/G,/A,/F,/ | G,/B,,/C,/D,/ G,,>F, G,/A,/B,/^G,/ | %34
 A,/C,/D,/E,/ A,,>^G, A,/B,/C/^A,/ | B,/^A,/B,/A,/ B,/F,/G,/=A,/ B,,[K:treble]E/4^D/4C/4D/4 | %36
 E/G/F/A/ G/F/E/G/ F/^D/E/^C/ |[K:bass] ^D/^C/B,/=D/ =C/A,/B,/^G,/ A,/=G,/F,/A,/ | %38
 G,/E,/F,/^D,/ E,/D,/^C,/E,/ D,/E,/F,/D,/ | E,/G,,/A,,/B,,/ E,,/F,,/G,,/A,,/ B,,/C,/D,/B,,/ | %40
 C,/E,/D,/=F,/ E,/G,/^F,/A,/ ^G,/B,/A,/C/ |[K:treble] B,/D/C/E/ D/=F/E/^G/ ^F/A/G/B/ | %42
 A/c/B/d/ c/A/B/G/ A/F/G/E/ | F/D/E/^C/ D/B/=C/A/ B,/G/A,/F/ | %44
 G, z/4 D/4E/4F/4 G/E/=F/D/ E/C/D/B,/ |[K:bass] G,/E,/=F,/D,/ E,/C/D,/B,/ C,/A,/B,,/G,/ | %46
 A,,/G,/F,/C,/ B,,/D,/G,/B,/ D/B,/C/A,/ | B,/A,/B,/A,/ B,/G,/D,/B,,/ G,, z | %48
 D,,/F,,/A,,/^C,/ D,>E, F,/G,/A,/F,/ | G,/B,,/C,/D,/ G,,>F, G,/A,/B,/^G,/ | %50
 A,/C,/D,/E,/ A,,>^G, A,/B,/C/^A,/ | B,/^A,/B,/A,/ B,/F,/G,/=A,/ B,,E/4^D/4C/4D/4 | %52
 E/G/F/A/ G/F/E/G/ F/^D/E/^C/ | ^D/^C/B,/=D/ =C/A,/B,/^G,/ A,/=G,/F,/A,/ | %54
 G,/E,/F,/^D,/ E,/D,/^C,/E,/ D,/E,/F,/D,/ | E,/G,,/A,,/B,,/ E,,/F,,/G,,/A,,/ B,,/C,/D,/B,,/ | %56
 C,/E,/D,/=F,/ E,/G,/^F,/A,/ ^G,/B,/A,/C/ | B,/D/C/E/ D/=F/E/^G/ ^F/A/G/B/ | %58
 A/c/B/d/ c/A/B/G/ A/F/G/E/ | F/D/E/^C/ D/B/=C/A/ B,/G/A,/F/ | %60
 G, z/4 D/4E/4F/4 G/E/=F/D/ E/C/D/B,/ | G,/E,/=F,/D,/ E,/C/D,/B,/ C,/A,/B,,/G,/ | %62
 A,,/G,/F,/C,/ B,,/D,/G,/B,/ D/B,/C/A,/ | B,/A,/B,/A,/ B,/G,/D,/B,,/ !fermata!G,, z |] %64

